client/public/assets/icons/utility/error.svg

<?xml version="1.0"?><svg xmlns="http://www.w3.org/2000/svg" width="52" height="52" viewBox="0 0 52 52"><path fill="#fff" d="m26 2c-13.2 0-24 10.8-24 24s10.8 24 24 24 24-10.8 24-24-10.8-24-24-24z m-18 24c0-9.9 8.1-18 18-18 3.9 0 7.5 1.2 10.4 3.3l-25.1 25.1c-2.1-2.9-3.3-6.5-3.3-10.4z m18 18c-3.9 0-7.5-1.2-10.4-3.3l25.1-25.1c2.1 2.9 3.3 6.5 3.3 10.4 0 9.9-8.1 18-18 18z"></path></svg>

<?xml version="1.0" encoding="utf-8"?>
<!-- Generator: Adobe Illustrator 18.1.1, SVG Export Plug-In . SVG Version: 6.00 Build 0)  -->
<svg version="1.1" id="Layer_1" xmlns="http://www.w3.org/2000/svg" xmlns:xlink="http://www.w3.org/1999/xlink" x="0px" y="0px"
	 width="52px" height="52px" viewBox="0 0 52 52" enable-background="new 0 0 52 52" xml:space="preserve">
<path fill="#FFFFFF" d="M26,2C12.8,2,2,12.8,2,26s10.8,24,24,24s24-10.8,24-24S39.2,2,26,2z M8,26c0-9.9,8.1-18,18-18
	c3.9,0,7.5,1.2,10.4,3.3L11.3,36.4C9.2,33.5,8,29.9,8,26z M26,44c-3.9,0-7.5-1.2-10.4-3.3c5.1-5.1,19.3-19.3,25.1-25.1
	C42.8,18.5,44,22.1,44,26C44,35.9,35.9,44,26,44z"/>
</svg>
